svg/fluentui-system-icons/ic_fluent_arrow_autofit_width_20_filled.svg

<svg width="20" height="20" viewBox="0 0 20 20" fill="none" xmlns="http://www.w3.org/2000/svg">
<path d="M15.5026 15.0027L14.7681 15.7121C14.4701 15.9998 14.4619 16.4746 14.7496 16.7726C15.0374 17.0705 15.5122 17.0788 15.8101 16.7911L17.6957 14.9701C18.1027 14.577 18.1027 13.9246 17.6957 13.5315L15.8101 11.7105C15.5122 11.4228 15.0374 11.431 14.7496 11.729C14.4619 12.0269 14.4701 12.5017 14.7681 12.7895L15.5066 13.5027H12.751C12.3368 13.5027 12.001 13.8385 12.001 14.2527C12.001 14.667 12.3368 15.0027 12.751 15.0027H15.5026ZM15.001 3C16.1055 3 17.001 3.89543 17.001 5V9.25C17.001 9.66421 16.6652 10 16.251 10C15.8368 10 15.501 9.66421 15.501 9.25V5C15.501 4.72386 15.2771 4.5 15.001 4.5H5.00098C4.72483 4.5 4.50098 4.72386 4.50098 5V9.25C4.50098 9.66421 4.16519 10 3.75098 10C3.33676 10 3.00098 9.66421 3.00098 9.25V5C3.00098 3.89543 3.89641 3 5.00098 3H15.001ZM5.23387 15.7121L4.49936 15.0027H7.25098C7.66519 15.0027 8.00098 14.667 8.00098 14.2527C8.00098 13.8385 7.66519 13.5027 7.25098 13.5027H4.49531L5.23387 12.7895C5.53182 12.5017 5.54009 12.0269 5.25235 11.729C4.9646 11.431 4.4898 11.4228 4.19185 11.7105L2.3063 13.5315C1.8992 13.9246 1.8992 14.577 2.3063 14.9701L4.19185 16.7911C4.4898 17.0788 4.9646 17.0705 5.25235 16.7726C5.54009 16.4746 5.53182 15.9998 5.23387 15.7121Z" fill="#212121"/>
</svg>

<svg xmlns="http://www.w3.org/2000/svg" width="20" height="20"><path d="m15.503 15.003-.735.71a.75.75 0 1 0 1.042 1.078l1.886-1.82a1 1 0 0 0 0-1.44l-1.886-1.82a.75.75 0 0 0-1.042 1.079l.739.713H12.75a.75.75 0 0 0 0 1.5h2.752ZM15 3a2 2 0 0 1 2 2v4.25a.75.75 0 0 1-1.5 0V5a.5.5 0 0 0-.5-.5H5a.5.5 0 0 0-.5.5v4.25a.75.75 0 0 1-1.5 0V5a2 2 0 0 1 2-2h10ZM5.234 15.712l-.735-.71h2.752a.75.75 0 1 0 0-1.5H4.495l.739-.713a.75.75 0 0 0-1.042-1.079l-1.886 1.821a1 1 0 0 0 0 1.44l1.886 1.82a.75.75 0 0 0 1.042-1.079Z"/></svg>
